X:5714
T:Gan ainm
R:Reel
S:(Martin O'Donohue)
H:
N:
D:Free Spirit
Z:Adrian Scahill
M:4/4
L:1/8
K:D
dBAF A2FA|dBAF EDB,D|dBAF A2FA|1 DBBA Bdfe:|2 DBBA BcdB||\
ABde fdd2|gdfd edBd|ABde fded|1 FBBA BcdB:|2 FBBA Bdfe||


